outputs/icons/action/check_circle_outline_alt_round.svg

<svg width="1200" height="1200" viewBox="0 0 1200 1200" fill="none" xmlns="http://www.w3.org/2000/svg"><g clip-path="url(#clip0_223_1898)"><path d="M1064.51 294.51L564.51 794.51C545.01 814.01 513.51 814.01 494.011 794.51L352.511 653.01C333.011 633.51 333.011 602.01 352.511 582.51C372.011 563.01 403.511 563.01 423.011 582.51L529.01 688.51L993.51 224.01C1013.01 204.51 1044.51 204.51 1064.01 224.01C1084.01 243.51 1084.01 275.01 1064.51 294.51ZM788.51 137.01C704.01 102.51 608.01 90.51 508.01 108.51C304.511 145.01 142.011 309.01 107.511 512.51C50.511 850.01 331.511 1139.01 667.01 1095.51C865.01 1070.01 1031.01 922.51 1083.01 730.01C1103.01 656.51 1105.01 585.51 1093.51 519.01C1087.01 479.01 1037.51 463.51 1008.51 492.01C997.01 503.51 992.01 520.51 995.01 536.51C1006.01 603.01 1001.01 674.01 969.01 749.51C911.01 885.01 785.01 984.51 638.51 998.01C383.511 1021.51 172.011 805.51 203.511 549.01C225.011 372.01 367.511 228.01 544.01 203.51C630.51 191.51 712.51 208.01 782.51 244.01C802.01 254.01 825.51 250.51 841.01 235.01C865.01 211.01 859.01 170.51 829.01 155.01C815.51 149.01 802.01 142.51 788.51 137.01Z" fill="#1D1E23"/></g><defs><clipPath id="clip0_223_1898"><path width="24" fill="white" d="M0 0H1200V1200H0V0z"/></clipPath></defs></svg>

<svg xmlns="http://www.w3.org/2000/svg" width="1200" height="1200" fill="none"><g clip-path="url(#a)"><path fill="#000" d="m1064.51 294.51-500 500c-19.5 19.5-51 19.5-70.499 0l-141.5-141.5c-19.5-19.5-19.5-51 0-70.5s51-19.5 70.5 0l105.999 106 464.5-464.5c19.5-19.5 51-19.5 70.5 0 20 19.5 20 51 .5 70.5m-276-157.5c-84.5-34.5-180.5-46.5-280.5-28.5-203.499 36.5-365.999 200.5-400.499 404-57 337.5 224 626.5 559.499 583 198-25.5 364-173 416-365.5 20-73.5 22-144.5 10.5-211-6.5-40-56-55.5-85-27-11.5 11.5-16.5 28.5-13.5 44.5 11 66.5 6 137.5-26 213-58 135.5-184 235-330.5 248.5-254.999 23.5-466.499-192.5-434.999-449 21.5-177 164-321 340.499-345.5 86.5-12 168.5 4.5 238.5 40.5 19.5 10 43 6.5 58.5-9 24-24 18-64.5-12-80-13.5-6-27-12.5-40.5-18"/></g><defs><clipPath id="a"><path fill="#fff" d="M0 0h1200v1200H0z"/></clipPath></defs></svg>
